X: 109
M: 6/8
L: 1/8
K: Eb
[| "^1"G3 F3 | E3 z2z | G3 F3 | E3 z2z | "^2"B3 A2 A | G3 z2z |
e e e d c d | e2 B B2 B | "^4"e e e
d c d | e B B B2 A | G3 F3 | E3 z2z |]


